icons/svg/drag-horizontal.svg

﻿<?xml version="1.0" encoding="utf-8"?>
<!DOCTYPE svg PUBLIC "-//W3C//DTD SVG 1.1//EN" "http://www.w3.org/Graphics/SVG/1.1/DTD/svg11.dtd">
<svg xmlns="http://www.w3.org/2000/svg" xmlns:xlink="http://www.w3.org/1999/xlink" version="1.1" baseProfile="full" width="24" height="24" viewBox="0 0 24.00 24.00" enable-background="new 0 0 24.00 24.00" xml:space="preserve">
	<path fill="#000000" fill-opacity="1" stroke-width="0.2" stroke-linejoin="round" d="M 2.99999,15L 2.99999,13L 4.99999,13L 4.99999,15L 2.99999,15 Z M 3,11L 3,9.00002L 5,9.00002L 5,11L 3,11 Z M 7,15L 7,13L 9,13L 9,15L 7,15 Z M 7,11L 7,9.00002L 9,9.00002L 9,11L 7,11 Z M 11,15L 11,13L 13,13L 13,15L 11,15 Z M 11,11L 11,9.00001L 13,9.00001L 13,11L 11,11 Z M 15,15L 15,13L 17,13L 17,15L 15,15 Z M 15,11L 15,9L 17,9L 17,11L 15,11 Z M 19,15L 19,13L 21,13L 21,15L 19,15 Z M 19,11L 19,9L 21,9L 21,11L 19,11 Z "/>
</svg>

<svg xmlns="http://www.w3.org/2000/svg" version="1.1" baseProfile="full" width="24" height="24" viewBox="0 0 24.00 24.00" xml:space="preserve"><path fill="#000" fill-opacity="1" stroke-width=".2" stroke-linejoin="round" d="M3 15v-2h2v2H3zm0-4V9h2v2H3zm4 4v-2h2v2H7zm0-4V9h2v2H7zm4 4v-2h2v2h-2zm0-4V9h2v2h-2zm4 4v-2h2v2h-2zm0-4V9h2v2h-2zm4 4v-2h2v2h-2zm0-4V9h2v2h-2z"/></svg>
